X:1
T:Didn't My Lord Deliver Daniel?
M:2/2
L:1/8
K:F
 FD| F D2 CD F3| A3 A- A4| G3 G- G4| F3 D- D2| FD| F D2 CD F3| A3 A- A3 A|\
 A2 G2 FD F D-| D4 z2 GG| G G3 GF FF| G G3 G2 G2| GG GG GG FF| A6 AA|\
 G2 G2 GG GG| G2 G2 FF G2| A2G-F FD F D-| D4 z2||
